X:1
T:O Creator del Cielo
T:O Creator del Cielo
T:Giovanni Pietro Biandra
T:Source : Madrigaletti a 1, 2 e 3 voci.Libro primo---Venezia---B.Magni (Gardano)---1626. Editor : André Vierendeels (06/03/15).
T:Note : m21 and m22 in BC , "mi" notated as "do" in original print Original clefs : C4, F4 Figures in BC are notated in original print
C:Giovanni Pietro Biandra
%%score 1 2
L:1/8
Q:1/4=84
M:4/4
K:C
V:1 treble-8 nm="Tenor" snm="T"
V:2 bass nm="BC" snm="BC"
V:1
 A4 _BAGF | G/D/E/F/ G/F/F/E/4D/4 TE4 | D4 d4 | fedc d/A/B/c/ d/c/c/B/4A/4 | B4 A4 | z2 F2 AGGF | %6
w: O Cre- a- tor del|Cie- * * * * * * * * *|lo, O|Cre- a- tor del Cie- * * * * * * * *|* lo,|che me di nul- la|
 G2 G2 z2 c2 | edcB cBBA | TB4 A4 | z2 d4 cB | BA ^G2 G4 | z2 A3 A B2 | c2 F2 E4 | D4 z2 G2- | %14
w: fe- sti, che|me di nul- la fe- sti'à tua Sem-|bian- za|deh me tuo|ser- vo'in- de- gno|ren- di di|gra- tia de-|gno, deh|
 G2 FE ED ^C2 | ^C4 z2 AB | cA B/A/B/c/ d2 de | f3 e e4 | d4 z2 c2- | cc B2 B2 A2 | %20
w: _ me tuo der- vo'in- de-|gno ren- *|* * * * * * * di di|gra- tia de-|gno, ren-|* di di gra- tia|
 ^G/A/B/c/ A/B/c/d/ B/c/d/e/ c/B/c/d/ | B/c/d/^G/ A/B/c/d/ TB4 | A8 | z2 ^F2 G/F/G/A/ F2 | %24
w: de- * * * * * * * * * * * * * * *||gno,|pec- ca- * * * vi|
 z dBA GFED | C2 C2 z2 c2 | _BABc d/c/d/e/ ^c2 | d4 z2 A2 | _B2 c2 d2 e2 | f4 F4 | F6 F2 | E4 D4 | %32
w: è re- sta sol que- sta spe-|ran- za, che|non fia'il pre- gar va- * * * *|no, ch'a|Da- vid per- do-|na- sti'al|Pu- bli-|ca- no,|
 z ddA _B/c/d/A/ B/c/d/e/ | f/e/d/e/ c/d/_B/c/ A/G/F/E/ D/E/F/E/ | F/D/E/F/ G/A/F/4G/4F/4G/4 TE4 | %35
w: an Pu- bli- ca- * * * * * * *|||
 D8 |] %36
w: no.|
V:2
 D,2 C,2 _B,,4 |"^6" _B,,4 A,,4 |"^b" D,2 E,2 ^F,2 G,2 |"^6" D,4 F,4 | E,4 A,,4 | F,,8 | C,4 C,4 | %7
 A,,4 B,,2 C,2 | D,2 E,2 A,,4 | D,4 E,4 | E,4 E,4 | F,4 D,4 | C,2 _B,,2 G,,2 A,,2 | D,4 G,,4 | %14
 A,,4 A,,4 | A,,4 ^F,,4- | F,,4 ^F,,2 G,,2 | A,,2 _B,,2 G,,2 A,,2 | D,4 A,,4 | G,,4 C,3 D, | E,8- | %21
 E,8 | A,,8 |"^6""^b6" D,4 D,4 | B,,4 C,4 | C,8 | G,,4 _B,,2 A,,2 | D,4 ^F,4 | G,6 F,E, | D,6 C,2 | %30
 _B,,4 A,,2 G,,2 | A,,4 D,4 | ^F,4 G,4 | D,4 D,4 | A,,8 | D,8 |] %36

